X: 10933
M: C|
L: 1/8
K: F
c2d>c A2F>A | c2d>c A2f>e | d>cd>e f>ef>d | e>fg>a g2F>A |\
c2d>c A2F>A | c2d>c A2f>e | d>ef>d e>fg>e | f>ga>g f2 H:|
|: g>a |\
g<e e<c d<f f<d | c<A A<F G2 F>G | A>GA>c d>cd>f | e>fg>a g2F>A |\
c2d>c A2F>A | c2d>c A2f>e | d>ef>d e>fg>e | f>ga>g f2 :|


